styles/2/Numix/128/actions/green-document-open-recent.svg

<?xml version="1.0" encoding="UTF-8" standalone="no"?>
<svg
   xmlns:dc="http://purl.org/dc/elements/1.1/"
   xmlns:cc="http://creativecommons.org/ns#"
   xmlns:rdf="http://www.w3.org/1999/02/22-rdf-syntax-ns#"
   xmlns:svg="http://www.w3.org/2000/svg"
   xmlns="http://www.w3.org/2000/svg"
   xmlns:sodipodi="http://sodipodi.sourceforge.net/DTD/sodipodi-0.dtd"
   xmlns:inkscape="http://www.inkscape.org/namespaces/inkscape"
   width="128"
   height="128"
   viewBox="0 0 128 128"
   id="svg2"
   version="1.1"
   inkscape:version="0.91 r"
   sodipodi:docname="green-document-open-recent.svg">
  <metadata
     id="metadata16">
    <rdf:RDF>
      <cc:Work
         rdf:about="">
        <dc:format>image/svg+xml</dc:format>
        <dc:type
           rdf:resource="http://purl.org/dc/dcmitype/StillImage" />
        <dc:title />
      </cc:Work>
    </rdf:RDF>
  </metadata>
  <defs
     id="defs14" />
  <sodipodi:namedview
     pagecolor="#ffffff"
     bordercolor="#666666"
     borderopacity="1"
     objecttolerance="10"
     gridtolerance="10"
     guidetolerance="10"
     inkscape:pageopacity="0"
     inkscape:pageshadow="2"
     inkscape:window-width="1366"
     inkscape:window-height="747"
     id="namedview12"
     showgrid="false"
     inkscape:zoom="1.84375"
     inkscape:cx="98.345117"
     inkscape:cy="11.406931"
     inkscape:window-x="0"
     inkscape:window-y="21"
     inkscape:window-maximized="1"
     inkscape:current-layer="svg2" />
  <path
     style="fill:#66bb6a;fill-opacity:1;stroke:none"
     d="m 18,15.000003 c -2.927834,0 -6,3 -6,6.000001 l 0,27 -6,0 c -2.940198,0 -6,2.99066 -6,6 L 0,107 c 0,4 2,6 6,6 l 116,0 c 3.13523,0 6,-2.71669 6,-6 l 0,-42.999996 c 0,-3.009856 -2.91008,-6 -6,-6 l -6,0 0,-37 c 0,-2.922313 -2.90644,-6.000001 -6,-6.000001 z"
     id="path6-6-6"
     inkscape:connector-curvature="0"
     sodipodi:nodetypes="ssccssssscccsss" />
  <path
     sodipodi:nodetypes="sscsssssssscsssssscssssssss"
     inkscape:connector-curvature="0"
     style="fill:#000000;fill-opacity:0.32156863;stroke:none"
     d="m 18,15.000003 c -2.927834,0 -6,3 -6,6.000001 l 0,27 -6,0 c -2.940198,0 -6,2.99066 -6,6 L 0,107 c 0,4 2,6 6,6 l 116,0 c 3.13523,0 6,-2.71669 6,-6 l 0,-42.999996 c 0,-3.009856 -2.91008,-6 -6,-6 l -6,0 0,-37 c 0,-2.922313 -2.90644,-6.000001 -6,-6.000001 z m -12,37.000001 67.999997,0 c 1.18035,0 2,1.02954 2,2 l 0,8 46.000003,0 c 1.0111,0 2,1.017484 2,2 L 124,107 c 0,1.04258 -0.95753,2 -2,2 L 6,109 c -0.92859,0 -2,-0.79269 -2,-2 L 4,54.000004 c 0,-0.98481 1.033057,-2 2,-2 z"
     id="path3778-1" />
  <path
     style="fill:#ffffff"
     d="m 28,24 72,0 0,24 -72,0 z"
     id="path6"
     inkscape:connector-curvature="0" />
  <path
     style="fill:#cccccc"
     inkscape:connector-curvature="0"
     id="path18"
     d="m 36,40 56,0 0,4 -56,0 z" />
  <path
     style="fill:#cccccc"
     inkscape:connector-curvature="0"
     id="path20"
     d="m 36,32 56,0 0,4 -56,0 z" />
  <rect
     style="fill:#ffffff;fill-opacity:1;fill-rule:evenodd;stroke:none"
     id="rect3022"
     width="20"
     height="10"
     x="80"
     y="48" />
  <path
     style="fill:#cccccc"
     inkscape:connector-curvature="0"
     id="path16"
     d="m 80,48 12,0 0,4 -12,0 z" />
  <path
     style="fill:#cccccc;fill-opacity:1;stroke:none"
     d="m 76,48 c 2,0 4,2 4,4 l 0,-4 z"
     id="path3024"
     inkscape:connector-curvature="0"
     sodipodi:nodetypes="cccc" />
  <path
     style="fill:#cccccc"
     inkscape:connector-curvature="0"
     id="path16-6"
     d="m 80,56 12,0 0,2 -12,0 z" />
  <path
     style="fill:#859900;fill-rule:evenodd"
     d="M 127.992188 96 C 128.226562 107.355469 122.179688 117.945312 112.1875 123.691406 C 102.191406 129.4375 89.808594 129.4375 79.8125 123.691406 C 69.816406 117.945312 63.773438 107.355469 64.007812 96 C 63.773438 84.644531 69.816406 74.054688 79.8125 68.308594 C 89.808594 62.5625 102.191406 62.5625 112.1875 68.308594 C 122.179688 74.054688 128.226562 84.644531 127.992188 96 Z "
     id="path8" />
  <path
     style="fill:#fff"
     d="M 113.496094 75.878906 C 112.820312 76.125 112.246094 76.578125 111.859375 77.179688 L 94.417969 94.058594 L 83.535156 83.671875 C 83.105469 82.230469 81.730469 81.269531 80.214844 81.351562 C 78.699219 81.433594 77.4375 82.535156 77.167969 84.015625 C 76.898438 85.492188 77.6875 86.964844 79.078125 87.566406 L 92.191406 100.550781 C 93.449219 101.707031 95.390625 101.707031 96.648438 100.550781 L 116.316406 81.074219 C 117.085938 80.0625 117.191406 78.699219 116.585938 77.582031 C 115.980469 76.46875 114.773438 75.800781 113.496094 75.878906 Z "
     id="path10" />
</svg>

<svg xmlns="http://www.w3.org/2000/svg" viewBox="0 0 128 128">
 <path d="m 18 15 c -2.928 0 -6 3 -6 6 l 0 27 -6 0 c -2.94 0 -6 2.991 -6 6 l 0 53 c 0 4 2 6 6 6 l 116 0 c 3.135 0 6 -2.717 6 -6 l 0 -43 c 0 -3.01 -2.91 -6 -6 -6 l -6 0 0 -37 c 0 -2.922 -2.906 -6 -6 -6 z" style="fill:#66bb6a;fill-opacity:1;stroke:none"/>
 <path d="m 18 15 c -2.928 0 -6 3 -6 6 l 0 27 -6 0 c -2.94 0 -6 2.991 -6 6 l 0 53 c 0 4 2 6 6 6 l 116 0 c 3.135 0 6 -2.717 6 -6 l 0 -43 c 0 -3.01 -2.91 -6 -6 -6 l -6 0 0 -37 c 0 -2.922 -2.906 -6 -6 -6 z m -12 37 68 0 c 1.18 0 2 1.03 2 2 l 0 8 46 0 c 1.011 0 2 1.017 2 2 l 0 43 c 0 1.043 -0.958 2 -2 2 l -116 0 c -0.929 0 -2 -0.793 -2 -2 l 0 -53 c 0 -0.985 1.033 -2 2 -2 z" style="fill:#000;fill-opacity:0.322;stroke:none"/>
 <path d="m 28 24 72 0 0 24 -72 0 z" style="fill:#fff"/>
 <path d="m 36 40 56 0 0 4 -56 0 z" style="fill:#ccc"/>
 <path d="m 36 32 56 0 0 4 -56 0 z" style="fill:#ccc"/>
 <rect width="20" height="10" x="80" y="48" style="fill:#fff;fill-opacity:1;stroke:none;fill-rule:evenodd"/>
 <path d="m 80 48 12 0 0 4 -12 0 z" style="fill:#ccc"/>
 <path d="m 76 48 c 2 0 4 2 4 4 l 0 -4 z" style="fill:#ccc;fill-opacity:1;stroke:none"/>
 <path d="m 80 56 12 0 0 2 -12 0 z" style="fill:#ccc"/>
 <path d="m 127.99 96 c 0.234 11.355 -5.813 21.945 -15.805 27.691 c -9.996 5.746 -22.379 5.746 -32.375 0 c -9.996 -5.746 -16.04 -16.336 -15.805 -27.691 c -0.234 -11.355 5.809 -21.945 15.805 -27.691 c 9.996 -5.746 22.379 -5.746 32.375 0 c 9.992 5.746 16.04 16.336 15.805 27.691 Z" style="fill:#859900;fill-rule:evenodd"/>
 <path d="m 113.5 75.879 c -0.676 0.246 -1.25 0.699 -1.637 1.301 l -17.441 16.879 l -10.883 -10.387 c -0.43 -1.441 -1.805 -2.402 -3.32 -2.32 c -1.516 0.082 -2.777 1.184 -3.047 2.664 c -0.27 1.477 0.52 2.949 1.91 3.551 l 13.11 12.984 c 1.258 1.156 3.199 1.156 4.457 0 l 19.668 -19.477 c 0.77 -1.012 0.875 -2.375 0.27 -3.492 c -0.605 -1.113 -1.813 -1.781 -3.09 -1.703 Z" style="fill:#fff"/>
</svg>
